!!!COM: Bach, Johann Sebastian
!!!CDT: 1685/3//-1750/7/28/
!!!OTL@@DE: Nun danket alle Gott
!!!OTL@EN:  From the depths of my heart
!!!AGN: 4-Part Chorale
!!!SCT: BH 032
!!!SCT: BWV 386
**harm	**root	**kern	**kern	**kern	**kern
!	!	!bass	!tenor	!alto	!soprno
*	*Iorgan	*Iorgan	*Iorgan	*Iorgan	*Iorgan
*M4/4	*M4/4	*M4/4	*M4/4	*M4/4	*M4/4
*met(c)	*met(c)	*met(c)	*met(c)	*met(c)	*met(c)
*MM60	*MM60	*MM60	*MM60	*MM60	*MM60
*k[]	*k[]	*k[]	*k[]	*k[]	*k[]
*C:	*C:	*C:	*C:	*C:	*C:
*>[A,A,B]	*>[A,A,B]	*>[A,A,B]	*>[A,A,B]	*>[A,A,B]	*>[A,A,B]
*>A	*>A	*>A	*>A	*>A	*>A
I	4AA	4C	4e	4cc	4gg
=1	=1	=1	=1	=1	=1
I	4AA	8c	4e	4cc	4gg
.	.	8d	.	.	.
Ib	4AA	8e	4e	4cc	4gg
.	.	8c	.	.	.
IV	4DD	8F	4f	4cc	4aa
.	.	8G	.	.	.
IVb	4DD	8A	4f	4cc	4aa
.	.	8F	.	.	.
=2	=2	=2	=2	=2	=2
I;	2AA;	2c;	2e;	2cc;	2gg;
r	4r	4r	4r	4r	4r
vib	4FF#	4c	4a	4cc	4ee
=3	=3	=3	=3	=3	=3
V7b	4EE	4B	4g	4dd	4ff
I	4AA	4c	4g	4cc	4ee
V7	4EE	8G	4g	4b	4dd
.	.	8F	.	.	.
Ib	4AA	8E	4g	4cc	8.ee
.	.	8C	.	.	.
.	.	.	.	.	16ff
=4	=4	=4	=4	=4	=4
V7	2EE	2G	8g	8cc	2dd
.	.	.	16f	8a	.
.	.	.	16e	.	.
.	.	.	4f	4b	.
I;	4AA;	4C;	4e;	4g;	4cc;
=:|!	=:|!	=:|!	=:|!	=:|!	=:|!
*>B	*>B	*>B	*>B	*>B	*>B
V	4EE	4G	8d	8b	4dd
.	.	.	8c	8a	.
=5	=5	=5	=5	=5	=5
V	4EE	8G	8B	4g	4dd
.	.	8A	8c	.	.
Vb	4EE	8B	4d	4g	4dd
.	.	8G	.	.	.
I	4AA	8C	8d	4g	4ee
.	.	8D	16c	.	.
.	.	.	16B	.	.
Ib	4AA	8E	4c	4g	4ee
.	.	8C	.	.	.
!!linebreak: 2
=6	=6	=6	=6	=6	=6
V;	2EE;	2GG;	2B;	2g;	2dd;
r	4r	4r	4r	4r	4r
V	4EE	4G	4g	4b	4dd
=7	=7	=7	=7	=7	=7
I	4AA	8c	4g	4cc	8ee
.	.	8d	.	.	8ff#
iii	4CC#	8e	4g	4b	4gg
.	.	8B	.	.	.
vi7b	4FF#	8c	4e	4a	4gg
.	.	8A	.	.	.
V/V	4BB	8d	4d	4a	4ff#
.	.	8D	.	.	.
=8	=8	=8	=8	=8	=8
V;	2EE;	2G;	2d;	2b;	2gg;
r	4r	4r	4r	4r	4r
I	4AA	4C	4e	4cc	4gg
=9	=9	=9	=9	=9	=9
IV	4DD	8F	4f	8cc	4aa
.	.	8E	.	8dd	.
vii/ii	4AA#	8D	4e	4ee	4gg
.	.	8C#	.	.	.
ii	4BB	8D	4a	8ee	4ff
.	.	8F	.	4dd	.
iiio7b	8CC#	8G	8b-	.	4ee
V/ii	8FF#	8A	8a	8cc#	.
=10	=10	=10	=10	=10	=10
ii;	2BB;	2D;	2a;	2dd;	2ff;
r	4r	4r	4r	4r	4r
Ib	4AA	8E	4g	4cc	4ee
.	.	8F	.	.	.
=11	=11	=11	=11	=11	=11
V	4EE	4G	4g	4b	4dd
I	8AA	8c	8g	4cc	8.ee
vi	8FF#	8A	8a	.	.
.	.	.	.	.	16ff
ii7b	4BB	8F	8a	4cc	4.dd
.	.	8D	8f	.	.
V	4EE	8G	8.d	4b	.
.	.	8GG	.	.	8cc
.	.	.	16g	.	.
=12	=12	=12	=12	=12	=12
I;	2.AA;	2.C;	2.e;	2.g;	2.cc;
==	==	==	==	==	==
*-	*-	*-	*-	*-	*-
!!chor2scor: -l 2 -s 0.6 -o %b.pmx
!!!YEC: Copyright 1994, David Huron
!!!YEC: Changes/Additions 2001 by Craig Stuart Sapp
!!!YEN: United States of America
!!!SMA: 371 Bach Chorales, edited by Ludwig Erk, C.F. Peters
!!!PDT: 1850, 1865
!!!ONB: Harmony and Root analysis done manually
